apps/web/src/images/integrations/logo-rapid7-black.svg

<svg width="600" height="600" viewBox="0 0 600 600" fill="none" xmlns="http://www.w3.org/2000/svg">
<path d="M554.306 249H474.224C475.438 250.237 476.653 251.518 477.757 252.865C486.724 263.731 491.45 277.38 491.45 292.398C491.45 315.588 481.689 336.503 466.008 350.594H515.038L538.338 292.685H509.185L514.044 270.224H571.953L541.541 350.594H553.467C581.228 350.771 600.001 327.713 600.001 299.709C600.001 271.704 582.112 249 554.284 249" fill="#E85E26"/>
<path fill-rule="evenodd" clip-rule="evenodd" d="M67.8874 249C90.2836 249 103.095 261.19 103.095 277.798C103.095 295.91 91.1894 311.06 72.3045 314.019L88.0578 350.594H62.7197L47.9499 315.697H33.0853L25.3985 350.594H0L22.3099 249H67.8874ZM37.7181 294.431H62.3919C72.1061 294.431 77.8087 287.96 77.8087 280.183C77.8087 277.849 77.1185 275.805 75.8158 274.187C73.8229 271.72 70.4152 270.244 65.8773 270.244H43.067L37.7181 294.431Z" fill="black"/>
<path fill-rule="evenodd" clip-rule="evenodd" d="M99.3853 350.594L158.395 249H188.392L210.633 350.594H185.295L181.585 333.741H134.593L124.715 350.594H99.3853ZM168.688 275.106L146.912 312.561H176.926L168.688 275.106Z" fill="black"/>
<path fill-rule="evenodd" clip-rule="evenodd" d="M245.375 249H288.329C309.975 249.022 323.33 261.035 323.33 278.177C323.33 297.411 308.672 315.654 284.464 315.654H256.15L248.42 350.594H223.065L245.375 249ZM260.835 294.431H283.36C292.367 294.431 298.225 287.96 298.225 280.183C298.225 273.933 293.471 270.244 285.741 270.244H266.132L260.835 294.431Z" fill="black"/>
<path d="M372.41 249H347.012L324.659 350.594H350.057L372.41 249Z" fill="black"/>
<path fill-rule="evenodd" clip-rule="evenodd" d="M423.759 249C440.72 249 455.093 254.961 463.798 265.564C469.647 272.565 473.012 281.663 473.012 292.399C473.012 309.623 466.274 329.902 447.277 341.427C437.934 347.061 425.7 350.594 409.8 350.594H368.83L391.2 249H423.759ZM398.887 329.393H412.915C434.776 329.393 447.855 313.091 447.855 294.763C447.855 281.136 439.702 270.244 425.174 270.244H411.923L398.887 329.393Z" fill="black"/>
</svg>

<svg width="600" height="600" fill="none" xmlns="http://www.w3.org/2000/svg"><path d="M554.306 249h-80.082c1.214 1.237 2.429 2.518 3.533 3.865 8.967 10.866 13.693 24.515 13.693 39.533 0 23.19-9.761 44.105-25.442 58.196h49.03l23.3-57.909h-29.153l4.859-22.461h57.909l-30.412 80.37h11.926c27.761.177 46.534-22.881 46.534-50.885 0-28.005-17.889-50.709-45.717-50.709" fill="#E85E26"/><path fill-rule="evenodd" clip-rule="evenodd" d="M67.887 249c22.397 0 35.208 12.19 35.208 28.798 0 18.112-11.906 33.262-30.79 36.221l15.753 36.575H62.72l-14.77-34.897H33.085l-7.687 34.897H0L22.31 249h45.577Zm-30.169 45.431h24.674c9.714 0 15.417-6.471 15.417-14.248 0-2.334-.69-4.378-1.993-5.996-1.993-2.467-5.4-3.943-9.939-3.943h-22.81l-5.349 24.187ZM99.385 350.594 158.395 249h29.997l22.241 101.594h-25.338l-3.71-16.853h-46.992l-9.878 16.853h-25.33Zm69.303-75.488-21.776 37.455h30.014l-8.238-37.455ZM245.375 249h42.954c21.646.022 35.001 12.035 35.001 29.177 0 19.234-14.658 37.477-38.866 37.477H256.15l-7.73 34.94h-25.355L245.375 249Zm15.46 45.431h22.525c9.007 0 14.865-6.471 14.865-14.248 0-6.25-4.754-9.939-12.484-9.939h-19.609l-5.297 24.187Z" fill="#000"/><path d="M372.41 249h-25.398l-22.353 101.594h25.398L372.41 249Z" fill="#000"/><path fill-rule="evenodd" clip-rule="evenodd" d="M423.759 249c16.961 0 31.334 5.961 40.039 16.564 5.849 7.001 9.214 16.099 9.214 26.835 0 17.224-6.738 37.503-25.735 49.028-9.343 5.634-21.577 9.167-37.477 9.167h-40.97L391.2 249h32.559Zm-24.872 80.393h14.028c21.861 0 34.94-16.302 34.94-34.63 0-13.627-8.153-24.519-22.681-24.519h-13.251l-13.036 59.149Z" fill="#000"/></svg>
